src/resources/images/icons/sale-burst.svg

<svg width="67" height="55" viewBox="0 0 67 55" fill="none" xmlns="http://www.w3.org/2000/svg">
<path d="M8.22008 40.7031C13.0328 40.2609 15.4192 37.5595 15.4462 34.2657C15.5014 27.5429 5.18804 30.406 5.2113 27.5711C5.22016 26.4912 6.14006 25.7052 7.75327 25.557C9.58157 25.389 11.5123 25.8321 12.9531 27.0486L15.1007 23.9915C13.3396 22.5076 10.9807 21.8611 8.1307 22.123C3.90948 22.5108 1.30798 25.2319 1.2834 28.2288C1.22781 35.0056 11.5703 31.87 11.5446 35.0019C11.5359 36.0548 10.5334 37.0912 8.40931 37.2864C5.93573 37.5137 3.9823 36.5601 2.72948 35.3532L0.607727 38.5428C2.28764 40.0881 4.75169 41.0218 8.22008 40.7031Z" fill="#FF4B33"/>
<path d="M35.4754 37.8749L28.7132 20.5015L23.9274 20.9412L16.8698 39.5846L21.1985 39.1868L22.3528 36.0321L30.0424 35.3256L31.1466 38.2727L35.4754 37.8749ZM29.0215 32.047L23.4291 32.5609L26.2889 24.5552L29.0215 32.047Z" fill="#B9C1FF"/>
<path d="M49.2036 36.6135L49.2313 33.2386L41.6492 33.9353L41.7692 19.3018L37.9244 19.6551L37.7767 37.6635L49.2036 36.6135Z" fill="#FF8A6A"/>
<path d="M65.2724 35.137L65.3001 31.7621L56.4275 32.5774L56.4611 28.4735L65.1455 27.6755L65.1732 24.3006L56.4888 25.0986L56.5198 21.3188L65.3924 20.5035L65.4201 17.1286L52.7296 18.2947L52.5819 36.3031L65.2724 35.137Z" fill="#50B078"/>
<path d="M25.9998 16L19.9998 10" stroke="#FFCF48" stroke-linecap="round" stroke-linejoin="round"/>
<path d="M39.9998 14.5646L43.3786 8" stroke="#FFCF48" stroke-linecap="round" stroke-linejoin="round"/>
<path d="M31.0486 1L32.277 15.7414" stroke="#FFCF48" stroke-linecap="round" stroke-linejoin="round"/>
<path d="M35.9998 44L37.2548 53.8469" stroke="#FFCF48" stroke-linecap="round" stroke-linejoin="round"/>
<path d="M44.9998 43L49.344 47.3442" stroke="#FFCF48" stroke-linecap="round" stroke-linejoin="round"/>
<path d="M24.8613 44L20.9998 50.7577" stroke="#FFCF48" stroke-linecap="round" stroke-linejoin="round"/>
</svg>

<svg xmlns="http://www.w3.org/2000/svg" fill="none" viewBox="0 0 67 55"><path fill="#FF4B33" d="M8.22 40.703c4.813-.442 7.2-3.144 7.226-6.437.055-6.723-10.258-3.86-10.235-6.695.01-1.08.93-1.866 2.542-2.014 1.829-.168 3.76.275 5.2 1.492l2.148-3.058c-1.761-1.483-4.12-2.13-6.97-1.868-4.222.388-6.823 3.109-6.848 6.106-.055 6.777 10.287 3.641 10.262 6.773-.01 1.053-1.012 2.09-3.136 2.284-2.473.228-4.427-.726-5.68-1.933l-2.121 3.19c1.68 1.545 4.144 2.479 7.612 2.16Z"/><path fill="#B9C1FF" d="m35.475 37.875-6.762-17.373-4.786.44-7.057 18.643 4.328-.398 1.155-3.155 7.69-.706 1.104 2.947 4.328-.398Zm-6.454-5.828-5.592.514 2.86-8.006 2.732 7.492Z"/><path fill="#FF8A6A" d="m49.204 36.614.027-3.375-7.582.696.12-14.633-3.845.353-.147 18.008 11.427-1.05Z"/><path fill="#50B078" d="m65.272 35.137.028-3.375-8.872.815.033-4.103 8.684-.799.028-3.374-8.684.798.03-3.78 8.873-.816.028-3.374-12.69 1.166-.148 18.008 12.69-1.166Z"/><path stroke="#FFCF48" stroke-linecap="round" stroke-linejoin="round" d="m26 16-6-6M40 14.565 43.379 8M31.049 1l1.228 14.741M36 44l1.255 9.847M45 43l4.344 4.344M24.861 44 21 50.758"/></svg>
